X:1185
L:1/4
M:2/2
K:Amix
 e/f/ | (Tg g) a g/a/ | b/a/ g e [dg] | e/f/ Tg- g a | b/a/ g e2- e2 | e/f/ g a g/a/ | b/a/ g e f | 
 (g/4f/4g/) d e/f/e/c/ | B ^G A A- || A2 c/d/e/c/ | B ^G E [GB]/G/ | [A,E] c A/c/e/c/ | B ^G A A | 
 A,2 z3/2 E/ | A2 c/d/e/c/ | B ^G E [GB] | [A,E] c A/c/e/c/ | B ^G A A | A,2 c/d/e/c/ | 
 B ^G E [GB] | [A,E] c A/c/e/c/ | B ^G A A || [A,E]2 | e/f/ g a g | b/a/ g e d | g2 a g/a/ | 
 b/a/ g e2- |[M:2/4] e2 |[M:2/2] e/f/ g a g/a/ | b a/g/ e d | [dg]2 e/f/e/d/ | B ^G A A || 
 A,2 !slide!c A/c/ | B ^G E E | A,2 c A/c/ | B ^G A A | A,2 !slide!c A/c/ | B ^G E E | A,2 c A/c/ | 
 B ^G A A | A,2 !slide!c A/c/ | B ^G E E | A,2 c/d/e/c/ | B ^G A A ||

